Adwaita++/apps/scalable/youtube.svg

<svg enable-background="new 0 0 1024 721" height="128" viewBox="0 0 128 128" width="128" xmlns="http://www.w3.org/2000/svg" xmlns:xlink="http://www.w3.org/1999/xlink">
  <linearGradient id="SVGID_1_" gradientTransform="matrix(1 0 0 -1 0 721)" gradientUnits="userSpaceOnUse" x1="512.5" x2="512.5" y1="719.70001" y2="1.2">
    <stop offset="0" stop-color="#e52d27"/>
    <stop offset="1" stop-color="#bf171d"/>
  </linearGradient>
  <path d="m1013 156.3s-10-70.4-40.6-101.4c-38.8-40.7-82.4-40.9-102.3-43.3-143-10.3-357.4-10.3-357.4-10.3h-.4s-214.4 0-357.4 10.3c-19.9 2.4-63.5 2.6-102.3 43.3-30.6 31-40.6 101.4-40.6 101.4s-10.2 82.6-10.2 165.3v77.5c0 82.7 10.2 165.3 10.2 165.3s10 70.4 40.6 101.4c38.9 40.7 89.9 39.4 112.6 43.7 81.7 7.8 347.3 10.3 347.3 10.3s214.6-.3 357.6-10.7c20-2.4 63.5-2.6 102.3-43.3 30.6-31 40.6-101.4 40.6-101.4s10.2-82.7 10.2-165.3v-77.5c0-82.7-10.2-165.3-10.2-165.3zm-606 336.7v-287l276 144z" opacity=".2" stroke-width="8.511666" transform="matrix(.1174858 0 0 .1174858 3.788526 21.433721)"/>
  <path d="m51.605246 77.354223 32.426081-16.800469-32.426081-16.917956z" fill="#fff"/>
  <path d="m51.605246 43.635798 28.431564 18.985706 3.994517-2.06775z" fill="#420000" opacity=".12"/>
  <path d="m1013 156.3s-10-70.4-40.6-101.4c-38.8-40.7-82.4-40.9-102.3-43.3-143-10.3-357.4-10.3-357.4-10.3h-.4s-214.4 0-357.4 10.3c-19.9 2.4-63.5 2.6-102.3 43.3-30.6 31-40.6 101.4-40.6 101.4s-10.2 82.6-10.2 165.3v77.5c0 82.7 10.2 165.3 10.2 165.3s10 70.4 40.6 101.4c38.9 40.7 89.9 39.4 112.6 43.7 81.7 7.8 347.3 10.3 347.3 10.3s214.6-.3 357.6-10.7c20-2.4 63.5-2.6 102.3-43.3 30.6-31 40.6-101.4 40.6-101.4s10.2-82.7 10.2-165.3v-77.5c0-82.7-10.2-165.3-10.2-165.3zm-606 336.7v-287l276 144z" fill="url(#SVGID_1_)" stroke-width="8.511666" transform="matrix(.1174858 0 0 .1174858 3.788526 19.433721)"/>
</svg>

<?xml version="1.0" encoding="UTF-8" standalone="no"?>
<!-- Generator: Adobe Illustrator 21.0.0, SVG Export Plug-In . SVG Version: 6.00 Build 0)  -->

<svg
   xmlns:dc="http://purl.org/dc/elements/1.1/"
   xmlns:cc="http://creativecommons.org/ns#"
   xmlns:rdf="http://www.w3.org/1999/02/22-rdf-syntax-ns#"
   xmlns:svg="http://www.w3.org/2000/svg"
   xmlns="http://www.w3.org/2000/svg"
   xmlns:sodipodi="http://sodipodi.sourceforge.net/DTD/sodipodi-0.dtd"
   xmlns:inkscape="http://www.inkscape.org/namespaces/inkscape"
   version="1.1"
   id="YouTube_Icon"
   x="0px"
   y="0px"
   viewBox="0 0 128 128"
   enable-background="new 0 0 1024 721"
   xml:space="preserve"
   sodipodi:docname="youtube.svg"
   width="128"
   height="128"
   inkscape:version="0.92.3 (2405546, 2018-03-11)"><metadata
   id="metadata19"><rdf:RDF><cc:Work
       rdf:about=""><dc:format>image/svg+xml</dc:format><dc:type
         rdf:resource="http://purl.org/dc/dcmitype/StillImage" /><dc:title></dc:title></cc:Work></rdf:RDF></metadata><defs
   id="defs17" /><sodipodi:namedview
   pagecolor="#ffffff"
   bordercolor="#666666"
   borderopacity="1"
   objecttolerance="10"
   gridtolerance="10"
   guidetolerance="10"
   inkscape:pageopacity="0"
   inkscape:pageshadow="2"
   inkscape:window-width="1502"
   inkscape:window-height="932"
   id="namedview15"
   showgrid="false"
   inkscape:zoom="4.578125"
   inkscape:cx="64"
   inkscape:cy="64"
   inkscape:window-x="144"
   inkscape:window-y="86"
   inkscape:window-maximized="0"
   inkscape:current-layer="YouTube_Icon" />
<g
   style="stroke-width:8.5116663;fill:#000000;fill-opacity:1;opacity:0.2"
   transform="matrix(0.1174858,0,0,0.1174858,3.7885256,21.433721)"
   id="g836">
	<g
   style="stroke-width:8.5116663;fill:#000000;fill-opacity:1"
   id="g834">
		
			<linearGradient
   gradientTransform="matrix(1,0,0,-1,0,721)"
   y2="1.2"
   x2="512.5"
   y1="719.70001"
   x1="512.5"
   gradientUnits="userSpaceOnUse"
   id="linearGradient830">
			<stop
   id="stop826"
   style="stop-color:#E52D27"
   offset="0" />
			<stop
   id="stop828"
   style="stop-color:#BF171D"
   offset="1" />
		</linearGradient>
		<path
   style="fill:#000000;stroke-width:8.5116663;fill-opacity:1"
   inkscape:connector-curvature="0"
   id="path832"
   d="m 1013,156.3 c 0,0 -10,-70.4 -40.6,-101.4 C 933.6,14.2 890,14 870.1,11.6 727.1,1.3 512.7,1.3 512.7,1.3 h -0.4 c 0,0 -214.4,0 -357.4,10.3 C 135,14 91.4,14.2 52.6,54.9 22,85.9 12,156.3 12,156.3 c 0,0 -10.2,82.6 -10.2,165.3 v 77.5 c 0,82.7 10.2,165.3 10.2,165.3 0,0 10,70.4 40.6,101.4 38.9,40.7 89.9,39.4 112.6,43.7 81.7,7.8 347.3,10.3 347.3,10.3 0,0 214.6,-0.3 357.6,-10.7 20,-2.4 63.5,-2.6 102.3,-43.3 30.6,-31 40.6,-101.4 40.6,-101.4 0,0 10.2,-82.7 10.2,-165.3 v -77.5 c 0,-82.7 -10.2,-165.3 -10.2,-165.3 z M 407,493 V 206 l 276,144 z" />
	</g>
</g><path
   id="Triangle"
   d="M 51.605246,77.354223 84.031327,60.553754 51.605246,43.635798 Z"
   inkscape:connector-curvature="0"
   style="fill:#ffffff;stroke-width:0.99999994" />
<path
   id="The_Sharpness"
   enable-background="new    "
   d="m 51.605246,43.635798 28.431564,18.985706 3.994517,-2.06775 z"
   inkscape:connector-curvature="0"
   style="opacity:0.12000002;fill:#420000;stroke-width:0.99999994" />
<g
   id="Lozenge"
   transform="matrix(0.1174858,0,0,0.1174858,3.7885256,19.433721)"
   style="stroke-width:8.5116663">
	<g
   id="g11"
   style="stroke-width:8.5116663">
		
			<linearGradient
   id="SVGID_1_"
   gradientUnits="userSpaceOnUse"
   x1="512.5"
   y1="719.70001"
   x2="512.5"
   y2="1.2"
   gradientTransform="matrix(1,0,0,-1,0,721)">
			<stop
   offset="0"
   style="stop-color:#E52D27"
   id="stop4" />
			<stop
   offset="1"
   style="stop-color:#BF171D"
   id="stop6" />
		</linearGradient>
		<path
   d="m 1013,156.3 c 0,0 -10,-70.4 -40.6,-101.4 C 933.6,14.2 890,14 870.1,11.6 727.1,1.3 512.7,1.3 512.7,1.3 h -0.4 c 0,0 -214.4,0 -357.4,10.3 C 135,14 91.4,14.2 52.6,54.9 22,85.9 12,156.3 12,156.3 c 0,0 -10.2,82.6 -10.2,165.3 v 77.5 c 0,82.7 10.2,165.3 10.2,165.3 0,0 10,70.4 40.6,101.4 38.9,40.7 89.9,39.4 112.6,43.7 81.7,7.8 347.3,10.3 347.3,10.3 0,0 214.6,-0.3 357.6,-10.7 20,-2.4 63.5,-2.6 102.3,-43.3 30.6,-31 40.6,-101.4 40.6,-101.4 0,0 10.2,-82.7 10.2,-165.3 v -77.5 c 0,-82.7 -10.2,-165.3 -10.2,-165.3 z M 407,493 V 206 l 276,144 z"
   id="path9"
   inkscape:connector-curvature="0"
   style="fill:url(#SVGID_1_);stroke-width:8.5116663" />
	</g>
</g>
</svg>
